X:0502
T:Dumbarton's Drums [1]
B:RSCDS 5-2
B:Playford 1697
B:McGibbon 1763
M:C|
L:1/8
%--------------------
K:F
|: FG | \
"F"A3c "C7"ABGA | "F"F2c>d c2BA | "Gm"GFGA BAGF | D2d>e "C7"d2cd | 
"F"f3g agfd || "F"cAcd f3F | "Gm"GAfd "Am"cAGF | "Dm"D2d>e d2 :|
|: cd | \
"F"f3g fgag | f2a>b a2gf | "Gm"gfga bagf | d2g>a "C7"g2fd |
"F"cdfg "(Bb)"agfd | "F"cAcd "Dm"f2fg | "Am"agfd cAGF | "Dm"D2d>e d2 :|
